X:1
T:Title
%%score { ( 1 3 ) | ( 2 4 5 ) }
L:1/8
M:4/4
K:Ab
V:1 treble nm="Grand Piano"
V:3 treble 
V:2 bass 
V:4 bass 
V:5 bass 
V:1
 z4 z2[Q:1/4=96] [CE]>[DF] | [CA]>[CA] [Ec]>e c>c A>c | [FB]>[FA] [FA]>[DF] [CE]2 (3ABc | e6 z2 | %4
 B6 z2 | [CA]>[CA] [Ec]>e c>c A>c | [FB]>[FA] [FA]>[A,DF] [A,CE]2 z2 | z4 z2 G2 |[M:3/4] A6 | %9
[M:1/4] (3e=de |[M:4/4] c6 z2 | z/ [FA]3/2- [FA]4 z2 | e6 z2 | G>G G>G G2 (3e=de | c6 z2 | %15
 z/ [FA]3/2- [FA]4 z2 | e6 z2 |[M:3/4] A6 |] %18
V:2
 z4 z2 [A,,A,]>[A,,A,] | [A,,A,]>[A,,A,] [A,,A,]>[A,,CE][K:treble] [A,E]>[A,E] [A,CE]>[A,EA] | %2
 [D,D]>[D,D] [D,D]>[D,A,] [A,,A,]2 z2 | z2 [A,C]>[A,C] [A,C]>[A,E] [G,B,E]>[F,B,=D] | %4
 [E,G,E]>[E,G,] [B,,F,]>[B,,F,] [E,G,]2 [A,,A,]>[A,,A,] | %5
 [A,,A,]>[A,,A,] [A,,A,]>[A,,CE][K:treble] [A,E]>[A,E] [A,CE]>[A,EA] | %6
 [D,D]>[D,D] [D,D]>E, A,,2[K:treble] (3ABc | e6[K:bass] z2 |[M:3/4] z z/[K:treble] C/ D>D C2 | %9
[M:1/4] z2 |[M:4/4][K:bass] [A,E]>A, [E,A,]>[E,A,] A,>[A,CE] [A,DE]>[A,CE] | %11
 [D,D]<[D,D] D,>D, D,<D, z2 | z2[K:treble] [A,C]>[A,C] [A,C]>[A,EA] [G,E]>[K:bass][F,=DF] | %13
 [E,E]>[E,E] [E,E]>[E,E] [E,E]2 z2 | [A,E]>A, [E,A,]>[E,A,] A,>[A,CE] [A,DE]>[A,CE] | %15
 [D,D]<[D,D] D,>D, D,<D, z2 | z2[K:treble] [A,C]>[A,C] [A,C]>[A,EA][K:bass] (3E,-[E,E]E, | %17
[M:3/4] z E z2 z2 |] %18
V:3
 x8 | x8 | x8 | z2 A>A A>c B>A | z z/ E/ =D>D E2 [CE]>[_DF] | x8 | x8 | %7
 z2 [CA]>[CA] [CA]>[EAc] (3[DB]c[DB] |[M:3/4] C>E F>F E2 |[M:1/4] x2 |[M:4/4] z z/ E/ E>E E>A B>A | %11
 .F2 D>D D<D (3ABc | z2 A>A A>c B>A | B6 z2 | z z/ E/ E>E E>A B>A | .F2 D>D D<D (3ABc | %16
 z2 A>A A>c (3[DG-B][Gc][DGB] |[M:3/4] C2 F>F E2 |] %18
V:4
 x8 | x4[K:treble] x4 | x8 | x8 | x8 | x4[K:treble] x4 | x6[K:treble] x2 | %7
 z2 A,>[K:bass]A, A,>A, (3E,-[E,E]E, |[M:3/4] A,,6[K:treble] |[M:1/4] x2 |[M:4/4][K:bass] x8 | x8 | %12
 x2[K:treble] x11/2[K:bass] x/ | x8 | x8 | x8 | x2[K:treble] x4[K:bass] x2 | %17
[M:3/4] z z/ C/ D>D C2 |] %18
V:5
 x8 | x4[K:treble] x4 | x8 | x8 | x8 | x4[K:treble] x4 | x6[K:treble] x2 | x7/2[K:bass] x9/2 | %8
[M:3/4] x3/2[K:treble] x9/2 |[M:1/4] x2 |[M:4/4][K:bass] x8 | x8 | x2[K:treble] x11/2[K:bass] x/ | %13
 x8 | x8 | x8 | x2[K:treble] x4[K:bass] x2 |[M:3/4] A,,6 |] %18

